X:1
T:Title
%%score ( 1 2 ) ( 3 4 )
L:1/8
Q:1/4=105
M:4/4
K:Eb
V:1 treble nm="Grand Piano, Soprano"
V:2 treble 
V:3 bass nm="Choir Pad, All Taken Away"
V:4 bass 
V:1
 EF [EG]2 [GB]2 [GB]2 | [GB]2 [Ac]2 [Ac]2 [GB]2 | EF [EG]2 [EG][EG][EG][EF] | E2 [DF]6 | %4
 EF [EG]2 [GB]2 [GB]2 | [GB]2 [Ac]2 [Ac]2 [GB]2 | EF [EG]2 [EG][EG][DF][DF] | [DF]2 E6 | %8
 EF [EG]2 [EG][EG][EG][EF] | z2 B6 | EF [EG]2 [EG][EG][GB][GB] | [EG]2 [DF]6 | %12
 [AB][AB][Ge][Ge] [Ge][Ge] [GB]2 | [GB]2 [Ac][Ae]- [Ae]4 | EF [EG]2 [EG][EG][DF][DF] | [DF]2 E6- | %16
 E2 z2 z4 |] %17
V:2
 x8 | x8 | x8 | x8 | x8 | x8 | x8 | x8 | x8 | E2 E2 G2 G2 | x8 | x8 | x8 | x8 | x8 | x8 | x8 |] %17
V:3
 G,A, [E,B,]2 [E,E]2 [E,E]2 | [E,E]2 [A,E]2 [A,E]2 [E,E]2 | G,A, [E,B,]2 [E,B,][E,B,][E,B,][E,B,] | %3
w: By~Arthur~Wilton * * * *|||
 [E,G,]2 [B,,B,]6 | G,A, [E,B,]2 [E,E]2 [E,E]2 | [E,E]2 [A,E]2 [A,E]2 [E,E]2 | %6
w: |||
 G,A, [E,B,]2 [E,B,][E,B,][B,,B,][B,,B,] | [B,,B,]2 [E,G,]6 | %8
w: ||
 G,A, [E,B,]2 [E,B,][E,B,][E,B,][E,B,] | [E,G,]2 G,2 B,2 E2 | G,A, [E,B,]2 [E,B,][E,B,][E,E][E,E] | %11
w: |||
 [E,B,]2 [B,,B,]2 [B,,B,]2 [B,,B,]2 | [D,B,][D,B,][E,B,][E,B,] [E,B,][E,B,] [E,E]2 | %13
w: ||
 [E,E]2 [A,E][A,C]- [A,C]4 | [G,B,][F,B,] [E,B,]2 [E,B,][E,B,][B,,B,][B,,B,] | [B,,B,]2 [E,G,]6- | %16
w: |||
 [E,G,]2 z2 z4 |] %17
w: |
V:4
 E,2 z2 z4 | x8 | E,2 z2 z4 | x8 | E,2 z2 z4 | x8 | E,2 z2 z4 | x8 | E,2 z2 z4 | z2 E,6 | %10
 E,2 z2 z4 | x8 | x8 | x8 | x8 | x8 | x8 |] %17

